icons/svg/poi_colored/tower_cooling.svg

<?xml version="1.0" encoding="UTF-8" standalone="no"?>
<!-- Created with Inkscape (http://www.inkscape.org/) -->

<svg
   xmlns:dc="http://purl.org/dc/elements/1.1/"
   xmlns:cc="http://creativecommons.org/ns#"
   xmlns:rdf="http://www.w3.org/1999/02/22-rdf-syntax-ns#"
   xmlns:svg="http://www.w3.org/2000/svg"
   xmlns="http://www.w3.org/2000/svg"
   xmlns:sodipodi="http://sodipodi.sourceforge.net/DTD/sodipodi-0.dtd"
   xmlns:inkscape="http://www.inkscape.org/namespaces/inkscape"
   version="1.0"
   width="580"
   height="580"
   id="svg2"
   sodipodi:version="0.32"
   inkscape:version="0.91 r"
   sodipodi:docname="tower_cooling.svg"
   inkscape:output_extension="org.inkscape.output.svg.inkscape">
  <metadata
     id="metadata10">
    <rdf:RDF>
      <cc:Work
         rdf:about="">
        <dc:format>image/svg+xml</dc:format>
        <dc:type
           rdf:resource="http://purl.org/dc/dcmitype/StillImage" />
        <cc:license
           rdf:resource="http://web.resource.org/cc/PublicDomain" />
        <dc:language>en</dc:language>
        <dc:title />
      </cc:Work>
    </rdf:RDF>
  </metadata>
  <sodipodi:namedview
     inkscape:window-height="1004"
     inkscape:window-width="1920"
     inkscape:pageshadow="2"
     inkscape:pageopacity="0.0"
     guidetolerance="10.0"
     gridtolerance="10.0"
     objecttolerance="10.0"
     borderopacity="1.0"
     bordercolor="#666666"
     pagecolor="#ffffff"
     id="base"
     showgrid="false"
     inkscape:zoom="0.1767767"
     inkscape:cx="1111.2593"
     inkscape:cy="861.09675"
     inkscape:window-x="1680"
     inkscape:window-y="0"
     inkscape:current-layer="svg2"
     showguides="true"
     inkscape:guide-bbox="true"
     inkscape:window-maximized="1" />
  <defs
     id="defs4">
    <inkscape:perspective
       sodipodi:type="inkscape:persp3d"
       inkscape:vp_x="0 : 290 : 1"
       inkscape:vp_y="0 : 1000 : 0"
       inkscape:vp_z="580 : 290 : 1"
       inkscape:persp3d-origin="290 : 193.33333 : 1"
       id="perspective12" />
    <style
       type="text/css"
       id="style6">
   
    .fil0 {fill:#EF7900}
   
  </style>
    <inkscape:perspective
       id="perspective6807"
       inkscape:persp3d-origin="29.116032 : 19.410688 : 1"
       inkscape:vp_z="58.232063 : 29.116032 : 1"
       inkscape:vp_y="0 : 1000 : 0"
       inkscape:vp_x="0 : 29.116032 : 1"
       sodipodi:type="inkscape:persp3d" />
    <inkscape:perspective
       id="perspective6954"
       inkscape:persp3d-origin="290 : 193.33333 : 1"
       inkscape:vp_z="580 : 290 : 1"
       inkscape:vp_y="0 : 1000 : 0"
       inkscape:vp_x="0 : 290 : 1"
       sodipodi:type="inkscape:persp3d" />
    <inkscape:perspective
       id="perspective2541"
       inkscape:persp3d-origin="240 : 160 : 1"
       inkscape:vp_z="480 : 240 : 1"
       inkscape:vp_y="0 : 1000 : 0"
       inkscape:vp_x="0 : 240 : 1"
       sodipodi:type="inkscape:persp3d" />
    <inkscape:perspective
       id="perspective2750"
       inkscape:persp3d-origin="215 : 143.33333 : 1"
       inkscape:vp_z="430 : 215 : 1"
       inkscape:vp_y="0 : 1000 : 0"
       inkscape:vp_x="0 : 215 : 1"
       sodipodi:type="inkscape:persp3d" />
    <inkscape:perspective
       id="perspective2830"
       inkscape:persp3d-origin="0.5 : 0.33333333 : 1"
       inkscape:vp_z="1 : 0.5 : 1"
       inkscape:vp_y="0 : 1000 : 0"
       inkscape:vp_x="0 : 0.5 : 1"
       sodipodi:type="inkscape:persp3d" />
  </defs>
  <g
     id="g1327">
    <path
       d="M 66.275,1.768 C 24.94,1.768 1.704,23.139 1.704,66.804 L 1.704,516.927 C 1.704,557.771 22.598,579.156 63.896,579.156 L 515.92,579.156 C 557.227,579.156 578.149,558.84 578.149,516.927 L 578.149,66.804 C 578.149,24.203 557.227,1.768 514.627,1.768 C 514.624,1.768 66.133,1.625 66.275,1.768 z"
       style="fill:#111111;stroke:#eeeeee;stroke-width:3.40799999"
       id="path1329" />
  </g>
  <path
     inkscape:connector-curvature="0"
     d="m 412.28599,57.849386 c -18.74181,-8.063492 -39.56604,-14.51429 -66.63753,-14.51429 -47.89574,0 -77.04966,27.415878 -91.62662,45.15557 -79.13207,-4.838097 -100.50264,68.709144 -100.50264,68.709144 47.67402,-66.721512 115.0796,-46.13136 115.0796,-46.13136 0,0 16.65938,-32.253976 60.39028,-40.317476 43.73087,-8.063492 83.29691,11.288895 83.29691,11.288895 0,0 52.06058,-33.866676 139.52234,-22.577782 0,0 -64.55512,-33.866676 -139.52234,-1.612701 z"
     id="path5"
     style="fill:#ffffff;fill-opacity:1;stroke:none"
     sodipodi:nodetypes="cscccsccc" />
  <path
     inkscape:connector-curvature="0"
     d="m 351.73087,308.97326 c -10.51658,-52.07747 0,-109.49603 0,-109.49603 0,0 -30.41669,30.71906 -102.64048,31 -72.22379,0.28094 -105.60181,-31 -105.60181,-31 0,0 9.80947,57.41856 -0.70711,109.49603 -10.51658,52.07749 -82.589805,190.37287 -82.589805,192.4553 0,16.65938 83.296915,60.93482 187.418065,60.93482 104.12114,0 187.41806,-44.27544 187.41806,-60.93482 0,-2.08243 -72.78034,-140.37781 -83.29692,-192.4553 z"
     id="path7"
     style="fill:#ffffff;fill-opacity:1;stroke:none"
     sodipodi:nodetypes="zczczsssz" />
  <path
     inkscape:connector-curvature="0"
     d="m 417.45083,132.42598 c 87.46177,38.70477 131.19266,-37.092074 131.19266,-37.092074 0,0 -20.82424,101.600034 -135.35749,51.606364 -39.56605,-16.12699 -77.04966,-19.35239 -106.20358,1.6127 27.0715,-35.47938 72.8848,-33.86668 110.36841,-16.12699 z"
     id="path9"
     style="fill:#ffffff;fill-opacity:1;stroke:none"
     sodipodi:nodetypes="ccccc" />
  <path
     style="opacity:0.64299999;fill:#ffffff;fill-opacity:1;fill-rule:evenodd;stroke:none;stroke-width:1px;stroke-linecap:butt;stroke-linejoin:miter;stroke-opacity:1"
     d="m 160.15968,190.73772 c 0,0 41.36575,-19.09188 88.03479,-18.38477 46.66905,0.70711 91.21678,16.97056 91.21678,16.97056 0,0 -41.0122,22.62742 -90.50967,22.62742 -49.49747,0 -88.7419,-21.21321 -88.7419,-21.21321 z"
     id="path4144"
     inkscape:connector-curvature="0"
     sodipodi:nodetypes="cscsc" />
</svg>

<svg width="580" height="580" viewBox="0 0 580 580" fill="none" xmlns="http://www.w3.org/2000/svg">
<g clip-path="url(#clip0)">
<path d="M66.2751 1.76815C24.9401 1.76815 1.7041 23.1391 1.7041 66.8041V516.927C1.7041 557.771 22.5981 579.156 63.8961 579.156H515.92C557.227 579.156 578.149 558.84 578.149 516.927V66.8041C578.149 24.2031 557.227 1.76815 514.627 1.76815C514.624 1.76815 66.1331 1.62515 66.2751 1.76815Z" fill="#111111" stroke="#EEEEEE" stroke-width="3.408"/>
<path d="M412.286 57.8493C393.544 49.7858 372.72 43.335 345.648 43.335C297.753 43.335 268.599 70.7508 254.022 88.4905C174.89 83.6524 153.519 157.2 153.519 157.2C201.193 90.4782 268.599 111.068 268.599 111.068C268.599 111.068 285.258 78.8143 328.989 70.7508C372.72 62.6874 412.286 82.0397 412.286 82.0397C412.286 82.0397 464.346 48.1731 551.808 59.462C551.808 59.462 487.253 25.5953 412.286 57.8493V57.8493Z" fill="white"/>
<path d="M351.731 308.973C341.214 256.896 351.731 199.477 351.731 199.477C351.731 199.477 321.314 230.196 249.091 230.477C176.867 230.758 143.489 199.477 143.489 199.477C143.489 199.477 153.298 256.896 142.782 308.973C132.265 361.051 60.1919 499.346 60.1919 501.428C60.1919 518.088 143.489 562.363 247.61 562.363C351.731 562.363 435.028 518.088 435.028 501.428C435.028 499.346 362.248 361.051 351.731 308.973Z" fill="white"/>
<path d="M417.451 132.426C504.913 171.131 548.644 95.334 548.644 95.334C548.644 95.334 527.819 196.934 413.286 146.94C373.72 130.813 336.236 127.588 307.083 148.553C334.154 113.074 379.967 114.686 417.451 132.426V132.426Z" fill="white"/>
<path opacity="0.643" fill-rule="evenodd" clip-rule="evenodd" d="M160.16 190.738C160.16 190.738 201.525 171.646 248.194 172.353C294.864 173.06 339.411 189.324 339.411 189.324C339.411 189.324 298.399 211.951 248.902 211.951C199.404 211.951 160.16 190.738 160.16 190.738V190.738Z" fill="white"/>
</g>
<defs>
<clipPath id="clip0">
<path d="M0 0H580V580H0V0Z" fill="white"/>
</clipPath>
</defs>
</svg>
